static/assets/images/networks/linea.svg

<svg width="256" height="256" viewBox="0 0 256 256" fill="none" xmlns="http://www.w3.org/2000/svg">
<path fill-rule="evenodd" clip-rule="evenodd" d="M256 128C256 198.692 198.692 256 128 256C57.3075 256 0 198.692 0 128C0 57.3075 57.3075 0 128 0C198.692 0 256 57.3075 256 128Z" fill="black"/>
<path d="M174.534 101.57C187.218 101.57 197.5 91.1447 197.5 78.2848C197.5 65.425 187.218 55 174.534 55C161.851 55 151.569 65.425 151.569 78.2848C151.569 91.1447 161.851 101.57 174.534 101.57Z" fill="white"/>
<path d="M177.524 195.5L65 195.5V75.2881H90.7457V172.202H177.524V195.5Z" fill="white"/>
</svg>

<svg xmlns="http://www.w3.org/2000/svg" fill="none" viewBox="0 0 256 256"><path fill="#000" fill-rule="evenodd" d="M256 128c0 70.692-57.308 128-128 128S0 198.692 0 128 57.308 0 128 0s128 57.308 128 128" clip-rule="evenodd"/><path fill="#fff" d="M174.534 101.57c12.684 0 22.966-10.425 22.966-23.285S187.218 55 174.534 55c-12.683 0-22.965 10.425-22.965 23.285s10.282 23.285 22.965 23.285m2.99 93.93H65V75.288h25.746v96.914h86.778z"/></svg>
